X:1
T:Title
%%score ( 1 2 ) { 3 | 4 }
L:1/8
Q:1/4=85
M:6/8
K:Ab
V:1 treble nm="Grand Piano, Soprano"
V:2 treble 
V:3 bass nm="Choir Pad, Bass"
V:4 bass 
V:1
 [CE][Ec]>[=D_c] [E=c][CA][DG] | [EA][DB][FA] [DF] [CE]2 | [CE][EA]>[EA] [EA][EA][EA] | %3
w: By~Ira~Lee~Winterrowd * * * * *|||
 [EA][EB]>[EB] [Ec] [EB]2 | [EB][Ec]>[=D_c] [E=c][Ae][Ae] | [Ae][EA][DB] [Ec] [Fd]2 | %6
w: |||
 [FB][EA]>G [FA][FB][=Ac] | [Bd] [Ac]2 [GB] A2 | F [EA]2 z3 | [CA] [Fd]2 [Fd] [Fd]2 | %10
w: ||||
 z c2- c2- c/ z/ | [FA] [GB]2 [EB] [Ec]2 | z A2- A2- A/ z/ | z3 z .B2 | [DF] [CE]2 [CA] [Ec]2 | %15
w: |||||
 z3 z .d2 | z A2- A3- | A6 |] %18
w: |||
V:2
 x6 | x6 | x6 | x6 | x6 | x6 | x6 | x6 | x6 | x6 | [=Ed] _E2 E E2 | x6 | [EB] E2 F E2 | %13
 [CE] [DF]2 [DF]F-[FA] | x6 | [EA] [EB]2 [Ec]E-[Ec] | [DB] C2 D C2- | C6 |] %18
V:3
 A,A,>A, A,E,E, | E,F,A, A, A,2 | A,[K:treble]C>C CCC | A,G,>G, A, G,2 | G,A,>A, A,[K:treble]CC | %5
 CCA,[K:bass] A, A,2 | A,C>D[K:treble] EDE | F E2 D C2 | D C2 z3 | z3[K:bass] A, A,2 | %10
 A, A,2 A, A,2 | z3[K:treble] G, A,2 | D C2 D C2 | A, A,2 A, A,2 | A, A,2 A, A,2 | A, G,2 A,B,A, | %16
 G, A,2 F, E,2- | E,6 |] %18
V:4
 A,,A,,>A,, A,,A,,B,, | C,D,D, D, A,,2 | A,,A,,>A,, A,,A,,A,, | C,E,>E, E, E,2 | %4
 E,A,,>A,, A,,A,,A,, | A,, .A,2 z D,2 | D,A,,>B,, C,D,C, | B,, E,2 E, A,,2- | A,,3 z3 | z3 D, D,2 | %10
 D, A,,2 A,, A,,2 | z3 E, E,2 | E, A,,2 D, A,,2 | A,, D,2 D, D,2 | D, A,,2 A,, A,,2 | %15
 C, E,2 E, E,2 | E, A,,2- A,,3- | A,,6 |] %18

